assets/images/ammoType/sniper.svg

<svg height="512" viewBox="0 0 512 511.99998" width="512" xmlns="http://www.w3.org/2000/svg"><g transform="matrix(3.0827543 0 0 3.0827543 8.917243 24.485152)"><path d="m54.5 12.2h-29.7l-11.2 19.9 15.8 26.8c5 0 7 0 9.6 4.5l18.1 30.6c2.6 5.4-2 9.7-1.7 10.2l19.3 34.8 11.1.1 19.3-34.9c-2.8-6.1-2.51917-7.111208-.7-10.2l19.2-32.6c1.81917-3.088792 5.5-2.5 8-3l15.1-26.6-11.3-19.8h-29.1c-.4 2.6-4 5.9-7.1 6l-38.7.3c-2.1-.1-6-4.1-6-6.1z" fill="#3e36a5" fill-opacity=".75"/><path d="m19.2.1-18.2 32.000117 67.3 117.999883h23.7l67.3-119.5-18.8-30.5zm38.5 3.7 4.1 5.8 36.6-.1 3.7-5.3 36.03844.2 16.46156 26.2-19.2 34.399917-6.2.000083-19.2 32.799807 3.2 6.400123-23.2 41.90007h-19.3l-23.7-41.90007 3.2-6.400123-18.600091-32.79989h-6.999909l-18.8-32.8998 16.27625-28.100117z" fill="#7e82ff"/><g fill="#c1c3ff"><circle cx="80" cy="66.599998" r="5.5"/><path d="m77.5 18.424385h5v26.875616h-5z"/><path d="m56.9 101.4c3.7 2.4 7.7 4.3 12.1 5.5v-4.6c-4-1.3-7.7-3.3-11.1-5.8.2 2-.4 3.6-1 4.9z"/><path d="m104.3 94.5c-4 3.5-8.6 6.3-13.6 7.9v4.6c4.7-1.3 9-3.4 12.9-6.1-1-2.9-.5-4.4.7-6.4z"/><path d="m39.6 55.8h4.6c4-11.7 13.4-21.1 25.1-24.8v-4.8c-14.3 4.2-25.5 15.3-29.7 29.6z"/><path d="m42.4 69.2h16.6v-5.1h-19.6z"/><path d="m115.8 55.8h4.9c-4-14.4-15.3-25.6-29.6-29.6v4.6c11.5 3.7 21 13.2 24.7 25z"/><path d="m119.1 68.9 3-5h-21.1v5z"/><path d="m77.5 87.699997h5v27.200001h-5z"/></g><path d="m54.4 12h-29.7l-11.2 20.100117 15.8 26.799883c5 0 7 0 9.6 4.5l18.1 30.6c1.424665 3.128785 1.324706 3.658749-1.7 10.19993l19.3 34.80007 11.1.1 19.3-34.90007c-2.8-6.100002-2.51917-7.111138-.7-10.19993l19.2-32.6c1.81917-3.088792 5.5-2.5 8-3l15.1-26.6-11.3-19.8h-29.1c-.4 2.6-3.99839 6-7.1 6h-38.7c-2.10238 0-6-4-6-6z" fill="none" stroke="#7e82ff"/></g></svg>

<?xml version="1.0" encoding="UTF-8" standalone="no"?>
<svg
   version="1.1"
   id="svg2"
   inkscape:version="1.1.1 (3bf5ae0d25, 2021-09-20)"
   sodipodi:docname="Sniper_Ammo.svg"
   x="0px"
   y="0px"
   viewBox="0 0 512 511.99998"
   xml:space="preserve"
   width="512"
   height="512"
   xmlns:inkscape="http://www.inkscape.org/namespaces/inkscape"
   xmlns:sodipodi="http://sodipodi.sourceforge.net/DTD/sodipodi-0.dtd"
   xmlns="http://www.w3.org/2000/svg"
   xmlns:svg="http://www.w3.org/2000/svg"
   xmlns:rdf="http://www.w3.org/1999/02/22-rdf-syntax-ns#"
   xmlns:cc="http://creativecommons.org/ns#"
   xmlns:dc="http://purl.org/dc/elements/1.1/"><metadata
   id="metadata33"><rdf:RDF><cc:Work
       rdf:about=""><dc:format>image/svg+xml</dc:format><dc:type
         rdf:resource="http://purl.org/dc/dcmitype/StillImage" /></cc:Work></rdf:RDF></metadata><defs
   id="defs31" />
<style
   type="text/css"
   id="style2">
	.st0{fill:#3E36A5;}
	.st1{fill:#7E82FF;}
	.st2{fill:#C1C3FF;}
	.st3{fill:none;stroke:#7E82FF;}
</style>
<sodipodi:namedview
   bordercolor="#666666"
   borderopacity="1"
   fit-margin-bottom="0"
   fit-margin-left="0"
   fit-margin-right="0"
   fit-margin-top="0"
   gridtolerance="10"
   guidetolerance="10"
   id="namedview4"
   inkscape:current-layer="svg2"
   inkscape:cx="98.287843"
   inkscape:cy="292.0351"
   inkscape:pagecheckerboard="true"
   inkscape:pageopacity="0"
   inkscape:pageshadow="2"
   inkscape:window-height="697"
   inkscape:window-maximized="1"
   inkscape:window-width="1366"
   inkscape:window-x="-8"
   inkscape:window-y="-8"
   inkscape:zoom="0.70710678"
   objecttolerance="10"
   pagecolor="#ffffff"
   showgrid="false"
   inkscape:document-rotation="0">
	<inkscape:grid
   id="grid833"
   originx="1.03615"
   originy="0.02277946"
   type="xygrid" />
</sodipodi:namedview>


<g
   id="g850"
   transform="matrix(0,1.1586075,-1.3602268,0,142.72888,-16.392792)">
	<g
   id="g866">
	</g>
</g>
<g
   id="layer2"
   inkscape:groupmode="layer"
   inkscape:label="Layer 4">
</g>









<g
   id="g898"
   transform="matrix(3.0827543,0,0,3.0827543,8.9172429,24.485152)"><g
     id="g882"><g
       id="g868"><path
         id="path826"
         inkscape:connector-curvature="0"
         sodipodi:nodetypes="ccccscscccssccccssc"
         class="st0"
         d="M 54.5,12.2 H 24.8 L 13.6,32.1 29.4,58.9 c 5,0 7,0 9.6,4.5 L 57.1,94 c 2.6,5.4 -2,9.7 -1.7,10.2 l 19.3,34.8 11.1,0.1 19.3,-34.9 c -2.8,-6.1 -2.51917,-7.111208 -0.7,-10.2 l 19.2,-32.6 c 1.81917,-3.088792 5.5,-2.5 8,-3 L 146.7,31.8 135.4,12 h -29.1 c -0.4,2.6 -4,5.9 -7.1,6 l -38.7,0.3 c -2.1,-0.1 -6,-4.1 -6,-6.1 z"
         style="fill:#3e36a5;fill-opacity:0.75" /><path
         id="path823"
         inkscape:connector-curvature="0"
         class="st1"
         d="M 19.2,0.1 1,32.100117 68.3,150.1 H 92 L 159.3,30.6 140.5,0.1 Z M 57.7,3.8 61.8,9.6 98.4,9.5 102.1,4.2 138.13844,4.4 154.6,30.6 135.4,64.999917 129.2,65 110,97.799807 113.2,104.19993 90,146.1 H 70.7 L 47,104.19993 50.2,97.799807 31.599909,64.999917 H 24.6 L 5.8,32.100117 22.07625,4 Z"
         sodipodi:nodetypes="cccccccccccccccccccccccccc" /><circle
         class="st2"
         cx="80"
         cy="66.599998"
         r="5.5"
         id="circle11" /><path
         id="rect13"
         class="st2"
         style="fill:#c1c3ff"
         d="m 77.5,18.424385 h 5 v 26.875616 h -5 z"
         sodipodi:nodetypes="ccccc" /><path
         class="st2"
         d="m 56.9,101.4 c 3.7,2.4 7.7,4.3 12.1,5.5 v -4.6 C 65,101 61.3,99 57.9,96.5 c 0.2,2 -0.4,3.6 -1,4.9 z"
         id="path17" /><path
         class="st2"
         d="m 104.3,94.5 c -4,3.5 -8.6,6.3 -13.6,7.9 v 4.6 c 4.7,-1.3 9,-3.4 12.9,-6.1 -1,-2.9 -0.5,-4.4 0.7,-6.4 z"
         id="path19" /><path
         class="st2"
         d="m 39.6,55.8 h 4.6 C 48.2,44.1 57.6,34.7 69.3,31 V 26.2 C 55,30.4 43.8,41.5 39.6,55.8 Z"
         id="path21" /><polygon
         class="st2"
         points="42.4,69.2 59,69.2 59,64.1 39.4,64.1 "
         id="polygon23" /><path
         class="st2"
         d="m 115.8,55.8 h 4.9 C 116.7,41.4 105.4,30.2 91.1,26.2 v 4.6 c 11.5,3.7 21,13.2 24.7,25 z"
         id="path25" /><polygon
         class="st2"
         points="119.1,68.9 122.1,63.9 101,63.9 101,68.9 "
         id="polygon27" /></g><rect
       x="77.5"
       y="87.699997"
       class="st2"
       width="5"
       height="27.200001"
       id="rect15" /></g><path
     id="path826_1_"
     inkscape:connector-curvature="0"
     sodipodi:nodetypes="ccccscccccssccccssc"
     class="st3"
     d="M 54.4,12 H 24.7 L 13.5,32.100117 29.3,58.9 c 5,0 7,0 9.6,4.5 L 57,94 c 1.424665,3.128785 1.324706,3.658749 -1.7,10.19993 L 74.6,139 85.7,139.1 105,104.19993 C 102.2,98.099928 102.48083,97.088792 104.3,94 l 19.2,-32.6 c 1.81917,-3.088792 5.5,-2.5 8,-3 L 146.6,31.8 135.3,12 h -29.1 c -0.4,2.6 -3.99839,6 -7.1,6 H 60.4 c -2.10238,0 -6,-4 -6,-6 z" /></g>
</svg>
